**kern	**kern
*staff2	*staff1
=1-	=1-
*clefF4	*clefG2
*k[b-]	*k[b-]
*met(c)	*met(c)
*M4/4	*M4/4
1r	2r
.	4r
.	(4c'
=2	=2
(4F'	4f'
4E'	4g'
4F'	4a'
4D')	4f')
=3	=3
2C`	2cc`
2CC`	2g`
=4	=4
2FF	2f
4r	4r
(4F'	(4cc'
=5	=5
4E'	4cc'
4D'	4dd'
4C'	4ee'
4E')	4cc')
=6	=6
2D`	2ff`
2G`	2dd`
=7	=7
2C	2.cc
2r	.
.	(4cc'
=8	=8
4r	4ff'
(4c'	4ee'
4B-'	4dd'
4A')	4cc')
=9	=9
4r	(4ff'
(4c'	4ee'
4B-')	4dd')
8AL	(4c'
8GJ	.
=10	=10
(4F'	4f'
4E'	4g'
4F'	4a'
4D')	4b-')
=11	=11
2C`	2cc`
2CC`	2g`
=12	=12
2.FF	2.f
4r	4r
=13:|!	=13:|!
1r	2r
.	4r
.	4c
=14	=14
4F	12fL
.	12B
.	12cJ
4E	12gL
.	12B
.	12cJ
4F	12aL
.	12B
.	12cJ
4D	12fL
.	12B
.	12cJ
=15	=15
12CL	[2cc
12F	.
12AJ	.
12cL	.
12d	.
12BJ	.
4c	12ccL]
.	12dd
.	12ccJ
4r	12b-L
.	12a
.	12gJ
=16	=16
12r	4f
12dL	.
12cJ	.
12B-L	4r
12A	.
12GJ	.
4F	8r
.	32r
.	16.g#
4r	12aL
.	12b-
.	12bJ
=17	=17
4e	12ccL
.	12f#
.	12gJ
4d	12ddL
.	12f#
.	12gJ
4c	12eeL
.	12f#
.	12gJ
4e	12ccL
.	12f#
.	12gJ
=18	=18
12FL	[2ff
12A	.
12c#J	.
12dL	.
12c#	.
12dJ	.
4G 4B	12ffL]
.	12gg
.	12ffJ
4r	12eeL
.	12dd
.	12ccJ
=19	=19
12r	4cc
12cL	.
12GJ	.
12FL	4r
12E	.
12GJ	.
4C	4r
4r	4cc
=20	=20
4r	12ffL
.	12f
.	12ffJ
(4c	12dd#L
.	12ee
.	12fJ
4B-	12eeL
.	12dd
.	12fJ
4A)	12ddL
.	12cc
.	12fJ
=21	=21
4r	12ffL
.	12f
.	12ffJ
4c	12dd#L
.	12ee
.	12fJ
[4B-	12eeL
.	12dd
.	12fJ
12B-L]	12ddL
12c	12cc
12B-J	12eJ
=22	=22
4A	12fL
.	12c
.	12fJ
4E	12gL
.	12B
.	12cJ
4F	12aL
.	12e
.	12fJ
4D	12b-L
.	12e
.	12fJ
=23	=23
12CL	[2cc
12F	.
12AJ	.
12cL	.
12d	.
12BJ	.
4c	12ccL]
.	12dd
.	12ccJ
4r	12b-L
.	12a
.	12gJ
=24	=24
12r	4f
12dL	.
12cJ	.
12B-L	4r
12A	.
12GJ	.
4F	2r
4r	.
=25:|!	=25:|!
1r	2r
.	4r
.	4c
=26	=26
8.FL	4f
16CJk	.
8.EL	4g
16CJk	.
8.FL	4a
16CJk	.
8.DL	4f
16CJk	.
=27	=27
8.EL	2cc
16CJk	.
8.EL	.
16GJk	.
8.B-L	2e 2g
16AJk	.
8.B-L	.
16cJk	.
=28	=28
8.AL	2.f
16cJk	.
8.AL	.
16GJk	.
8.FL	.
16AJk	.
8.GL	4cc
16FJk	.
=29	=29
8.EL	4cc
16GJk	.
8.DL	4dd
16GJk	.
8.CL	4ee
16GJk	.
8.EL	4cc
16GJk	.
=30	=30
4D	2ff
8.dL	.
16cJk	.
8.BL	2f 2g 2dd
16AJk	.
8.BL	.
16GJk	.
=31	=31
8.cL	2.e 2.g 2.cc
16AJk	.
8.GL	.
16FJk	.
8.EL	.
16DJk	.
4C	4cc
=32	=32
4r	4ff
4c	4g 4ee
4f	4a 4dd
4e	4g 4cc
=33	=33
4d	4f 4ff
4c	4g 4ee
4f	4a 4dd
8.eL	4c
16dJk	.
=34	=34
8.cL	4f
16dJk	.
8.B-L	4g
16cJk	.
8.AL	4a
16B-Jk	.
8.GL	4b-
16AJk	.
=35	=35
4F	2cc
8.EL	.
16DJk	.
8.CL	2c 2g
16BB-Jk	.
8.AAL	.
16BB-Jk	.
=36	=36
8.CL	2.A 2.f
16BB-Jk	.
8.AAL	.
16GGJk	.
4FF	.
4r	4r
=37:|!	=37:|!
*k[b-e-a-d-]	*k[b-e-a-d-]
1r	2r
.	4r
.	(4c
=38	=38
*	*^
(4F	4f	8fL
.	.	8c
4E	4g	8g
.	.	8cJ
4F	4a-	8a-L
.	.	8c
4D-)	4f)	8f
.	.	8cJ
=39	=39	=39
2C	2cc	8a-L
.	.	(8c
.	.	8f
.	.	8cJ)
2CC	2g	8eL
.	.	(8c
.	.	8B-
.	.	8cJ)
*	*v	*v
=40	=40
*^	*
(8A-L	2FF	2.f
8c	.	.
8A-	.	.
8FJ)	.	.
2ryy	8FFL	.
.	8FJ	.
*	*	*^
.	4r	.	4r
*v	*v	*	*
.	4cc	8a-L
.	.	8fJ
=41	=41	=41
2r	.	.
.	(4cc	8aL
.	.	8f
.	4dd-	8b-
4r	.	8fJ
.	4ee-	8ccL
4F	.	8f
.	4cc)	8a
.	.	8fJ
*	*v	*v
=42	=42
2d-	.
*	*^
.	2ff	(8b-L
.	.	8f
.	.	8b-
.	.	8fJ)
2B-	2dd-	(8b-L
.	.	8f
.	.	8b-
.	.	8fJ)
=43	=43	=43
2.F	2.cc	(8aL
.	.	8f
.	.	8a
.	.	8fJ
.	.	8aL
.	.	8f)
(4e-	(4cc	8cc
.	.	8fJ
=44	=44	=44
4d-	4ff	8ffL
.	.	8f
4c	4ee-	8ee-
.	.	8fJ
4B-	4dd-	8dd-L
.	.	8f
4e-	4cc)	8a
.	.	8fJ
=45	=45	=45
4d-	(4ff	8b-L
.	.	8f
4c	4ee-	8a
.	.	8fJ
4B-	4dd-)	8b-L
.	.	8f
4G	(4e	8e
.	.	8cJ
*	*v	*v
=46	=46
*	*^
4A-	4f	8fL
.	.	8c
4E	4g	8g
.	.	8cJ
4F	4a-	8a-L
.	.	8c
4D-	4b-)	8b-
.	.	8fJ
=47	=47	=47
2C)	2cc	8a-L
.	.	(8c
.	.	8f
.	.	8cJ)
2CC	2g	8eL
.	.	(8c
.	.	8B-
.	.	8cJ)
*	*v	*v
=48	=48
*^	*
(8A-L	2FF	2.f
8c	.	.
8A-	.	.
8FJ)	.	.
4r	4FF	.
4r	4r	4r
*v	*v	*
=49||	=49||
*k[b-]	*k[b-]
1r	2r
.	4r
.	4c' 4cc'
=50	=50
12FFL	4f' 4ff'
12C	.
12FJ	.
12FFL	4g' 4gg'
12C	.
12FJ	.
12FFL	4a' 4aa'
12C	.
12FJ	.
12FFL	4f' 4ff'
12C	.
12FJ	.
=51	=51
12EEL	2cc 2ccc
12C	.
12EJ	.
12EEL	.
12C	.
12EJ	.
12BB-L	2g 2gg
12C	.
12EJ	.
12BB-L	.
12C	.
12EJ	.
=52	=52
12AAL	2f 2ff
12C	.
12FJ	.
12AAL	.
12C	.
12FJ	.
12AA-L	4r
12C	.
12F#J	.
12AA-L	4cc' 4ccc'
12C	.
12F#J	.
=53	=53
12GGL	4cc' 4ccc'
12C	.
12GJ	.
12GGL	4dd' 4ddd'
12C	.
12GJ	.
12AAnL	4ee' 4eee'
12C	.
12EJ	.
12AAL	4cc' 4ccc'
12C	.
12EJ	.
=54	=54
12FFL	2ff 2fff
12AA	.
12DJ	.
12FFL	.
12AA	.
12DJ	.
12GGL	2dd 2ddd
12BB	.
12FJ	.
12GGL	.
12BB	.
12FJ	.
=55	=55
12CL	2cc 2ccc
12E	.
12GJ	.
12cL	.
12G	.
12EJ	.
4C	4r
4r	4cc' 4ccc'
=56	=56
12r	(4ff 4fff
12CL	.
12FJ	.
12AAL	4ee 4eee
12C	.
12FJ	.
12BB-L	4dd 4ddd
12D	.
12FJ	.
12AAL	4cc) 4ccc
12C	.
12FJ	.
=57	=57
12FFL	(4ff 4fff
12C	.
12FJ	.
12AAL	4ee 4eee
12C	.
12FJ	.
12BB-L	4dd) 4ddd
12D	.
12FJ	.
12BB-L	4c' 4cc'
12C	.
12EJ	.
=58	=58
12AAL	4f' 4ff'
12C	.
12FJ	.
12BB-L	4g' 4gg'
12D	.
12FJ	.
12CL	4a' 4aa'
12E-	.
12FJ	.
12DL	4b-' 4bb-'
12F	.
12B-J	.
=59	=59
12EnL	2cc 2ccc
12G	.
12B-J	.
12FL	.
12A	.
12FJ	.
12DL	2g 2gg
12F	.
12BJ	.
12CL	.
12E	.
12B-J	.
=60	=60
12r	2.f 2.ff
12AL	.
12FJ	.
12CL	.
12F	.
12CJ	.
4FF	.
4r	4r
=61:|!	=61:|!
1r	2r
.	4r
.	4c
=62	=62
4F	(8fL
.	8a
4E	8g
.	8b-J
4F	8g#L
.	8aJ
4D	16b-LL
.	16a
.	16g
.	16fJJ)
=63	=63
8r	([2cc
(8C	.
8FL	.
8AJ	.
8cL	8ccL]
8d	8b-
8c	8a
8B-J	8gJ
=64	=64
8AL	4f)
8c	.
8B-	4r
8AJ	.
8GL	4r
8F	.
8E	(16bLL
.	16cc
8FJ)	16dd
.	16ccJJ)
=65	=65
(8EL	(8ccL
8G	8ee
8D	8dd
8GJ	8ffJ
8CL	8dd#L
8G	8eeJ
8E	16ffLL
.	16ee
8GJ)	16dd
.	16ccJJ)
=66	=66
8r	2ff
(8FF	.
8DL	.
8CJ	.
8BBL	2dd
8GG	.
8G	.
8FJ	.
=67	=67
8EL	4cc
8F	.
8G	4r
8EJ	.
8CL	4r
8D	.
8C	4cc
8BB-J	.
=68	=68
4AA)	(8ffL
.	8f
8r	8ee
(8c	8fJ)
4B-')	8r
.	(8dd
4A'	8fL
.	8ccJ)
=69	=69
4r	(8ffL
.	8f
8r	8ee
(8c	8fJ)
*	*^
4B-')	8r	4r
.	(8dd	.
(4G	8ccL	4e
.	8b-J)	.
=70	=70	=70
8FL	(8aL	4f
8c	8cc	.
*	*v	*v
8G	8b-
8cJ	8eeJ
*	*^
8AL	8ccL	2r
8c	8ff	.
8B-	8dd	.
8dJ)	8ggJ)	.
*	*v	*v
=71	=71
2c	8r
.	(8a 8ff
.	8ccL 8ee
.	8b-J 8dd
2C	8aL 8cc
.	8b- 8dd
.	8a 8cc
.	8gJ 8b-
=72	=72
2.FF 2.F	8fL 8a
.	8c 8g
.	8A 8f
.	8cJ 8g
.	4A) 4f
4r	4r
=73:|!	=73:|!
2r	2r
4r	4r
4CC' 4C'	4c'
=74	=74
4FF' 4F'	4f'
4GG' 4G'	4g'
4AA' 4A'	4a'
4FF' 4F'	4f'
=75	=75
4C 4c	8ccL
.	16bb-L
.	16ggJJ
4r	16ffLL
.	16ee
.	16dd
.	16ccJJ
2C 2E	16b-LL
.	16a
.	16g
.	16fJJ
.	16eLL
.	16d
.	16c
.	16B-JJ
=76	=76
4FF 4F	16ALL
.	16f
.	16c
.	16AJJ
16FLL	4r
16C	.
16AA	.
16CJJ	.
4FF	4r
4r	4c' 4cc'
=77	=77
4CC' 4C'	4c' 4cc'
4DD' 4D'	4d' 4dd'
4EE' 4E'	4e' 4ee'
4CC' 4C'	4c' 4cc'
=78	=78
4FF 4F	8fL 8ff
.	16aaL
.	16ffJJ
4r	16eeLL
.	16dd
.	16cc
.	16bJJ
2GG 2F	16aLL
.	16g
.	16f
.	16eJJ
.	16dLL
.	16c
.	16B
.	16dJJ
=79	=79
4C 4E	16cLL
.	16e
.	16c
.	16GJJ
16CLL	4E
16GG	.
16EE	.
16GGJJ	.
4CC	2r
4C' 4c'	.
=80	=80
4F' 4f'	4r
4E' 4e'	(24ccLL
.	24dd
.	24ccJ
.	16bL
.	16ccJJ
4D' 4d'	4ff')
4C' 4c'	4ee'
=81	=81
4F' 4f'	4dd'
4E' 4e'	(24ccLL
.	24dd
.	24ccJ
.	16bL
.	16ccJJ
4D' 4d'	[4ff)
4C'	16ffLL]
.	16ee
.	16dd
.	16ccJJ
=82	=82
4FF' 4F'	16ddLL
.	16cc
.	16b-
.	16aJJ
4GG' 4G'	16ccLL
.	16b-
.	16dd
.	16b-JJ
4AA' 4A'	16b-LL
.	16a
.	16cc
.	16aJJ
4BB-' 4B-'	16aLL
.	16g
.	16b-
.	16gJJ
=83	=83
*	*^
2C 2c	8f'L	2r
.	8g'	.
.	8a'	.
.	8b-'J	.
2C 2G	(4cc	2b-
.	8dd'L)	.
.	8ee'J	.
*	*v	*v
=84	=84
8F'L	4a 4ff
8G'	.
8A'	4r
8B-'J	.
(4c	(2b- 2cc
8d'L)	.
8e'J	.
=85	=85
*^	*
4f	8FF'L	4a)
.	8GG'	.
4r	8AA'	4r
.	8BB-'J	.
2r	(4C	(2B- 2c
.	8D'L)	.
.	8E'J	.
*v	*v	*
=86	=86
4FF 4F	4A)
4r	4r
2r	2r
==	==
*-	*-
